X:1
T:Jennings' Champion -- Clog
R:reel
B:Ryan's Mammoth Collection
N: 158 944
Z: Contributed by Ray Davies,  ray:davies99.freeserve.co.uk
M:C|
L:1/8
K:D
u(F>.G)|\
{B}v(A>.^G)"_SEGUE"A>F D>FA>d | c>"4"ed>B A>ce>g |\
 f>d"4"e>c d>BA>F | B2 E2 E>FG>^G |
{B}A>^GA>F D>FA>d | c>"4"ed>B A>ce>g | f>d"4"e>c d>BA>G |\
 F2 {c}d2 D2:|
|:u(c>.d)|\
{f}v(e>.^d)"_SEGUE""4"e>c A>ce>g | g>fa>f d2e>f |\
 g>ab>a g>fe>d | (3cde (3dcB A2c>d |
{f}e>^de>c A>ce>g | g>fa>f d2e>f | g>ab>a (3gec (3ABc |\
 d2 f2 d2:|
